X: 1606
T: Post Office, The
R:hornpipe
N:"Collected by F. O'Neill"
B:O'Neill's 1606
Z:Transcribed by Michael Hogan
M:2/4
L:1/16
K:G
(GA) | Bdde dBAG | Bcde d2BA | Beef edBA | Beef e2e2 |
gabg fgaf | "tr"gfed e2ge | dBAB dBAB | G2GG G2 :|
|: (ga) | babg agag | gabg agef | gfge dBGB | "tr"BAAG A2 z2 |
gabg fgaf "tr" gfed e2ge | dBAB dBAB | G2GG G2 :||


